svg/300/outlined/currency_ruble-fill.svg

<svg xmlns="http://www.w3.org/2000/svg" width="48" height="48" viewBox="0 -960 960 960"><path d="M297.308-140.001v-123.462h-87.307v-45.383h87.307v-116.539h-87.307v-45.384h87.307v-349.23h255.385q82.153 0 139.73 57.593 57.576 57.592 57.576 139.768 0 82.177-57.576 139.715-57.577 57.538-139.73 57.538H342.692v116.539h167.307v45.383H342.692v123.462h-45.384Zm45.384-330.768h210.001q63.796 0 107.859-44.057 44.064-44.058 44.064-107.846 0-63.789-44.064-107.866-44.063-44.077-107.859-44.077H342.692v303.846Z"/></svg>

<svg xmlns="http://www.w3.org/2000/svg" width="48" height="48" viewBox="0 -960 960 960"><path d="M297.31-140v-123.46H210v-45.39h87.31v-116.54H210v-45.38h87.31V-820h255.38q82.16 0 139.73 57.59Q750-704.81 750-622.64q0 82.18-57.58 139.72-57.57 57.53-139.73 57.53h-210v116.54H510v45.39H342.69V-140h-45.38Zm45.38-330.77h210q63.8 0 107.86-44.06 44.07-44.05 44.07-107.84 0-63.79-44.07-107.87-44.06-44.07-107.86-44.07h-210v303.84Z"/></svg>
